X:568
%%etbk:tnset id:302,pos:2,rep:3x,ant:
%%etbk:wsite https://thesession.org/tunes/13255
%%etbk:video src:ytube,cde:lLKw5IjNqjg,desc:third tune
%%etbk:color #ffe6e6
%%etbk:pldat 2016-09-17T14:49,2016-09-16T16:45,2016-09-15T18:54,2016-09-11T15:57,2015-03-27T18:43,2014-12-20T14:54,2014-12-16T17:10,2014-09-10T16:33,2014-09-09T18:16,2014-06-07T16:36,2014-05-07T18:17,2014-04-28T18:58,2014-04-27T14:16,2014-04-26T16:20,2014-04-11T19:01,2014-04-09T17:22,2014-04-07T18:02,2014-04-01T17:19,2014-03-31T18:48,2014-03-30T17:18,2014-03-29T15:55,2014-03-26T17:06,2014-03-25T15:48,2014-03-24T18:53,2014-03-23T14:31,2014-03-22T15:07,2014-03-21T15:29,2014-03-20T18:20,2014-03-19T18:46,2014-03-18T16:50,2014-03-17T18:47
T: Everybody Fancies Helen Mirren
Z: Piano Box Version by Martin Fleischmann
H: Created 2014-03-16 /  Last Modified 2016-09-16
R: reel
M: 4/4
L: 1/8
K: Edor
|:"em"!1!E!2!G!4!B!1!E !1!D!2!F!3!A!2!F | !1!E!2!G!4!B!5!d !4!c!3!A!2!F!1!D|EGBG DFAF|!4!G!2!EE!1!D !2!E!1!D!2!B,!1!D|
"em"!2!EEGE !1!DFAF|!1!EG!4!B!5!d !3!c!1!A !2!(3Bcd|!5!ed!2!BA !2!B!1!E EE|1!2!G2!4!B!5!d "bm"!4!c!3!A!2!F!1!D:|2 G2Bd "A"cAAA||
|:"em"!4!e!3!d!2!BA !2!B2 BB| "bm"!4!dcBA !2!B!4!d!5!fd | "em"!5!ed!2!BA !2!B!1!E EE|!2!G2!4!B!5!d "A"!3!c!1!AAA|
"em"!5!ed!2!BA !2!B!1!EE2|!4!dcBA !4!G!3!FED|!2!E2ED !2!E!3!F!1!GB|1 "bm"!2!A!1!F!5!d!1!A !2!BB!3!d!5!f:|2 "bm"!2!A2!5!d!3!A !4!B!3!A!2!F!1!D||


